X: 18568
T: I Looked East And I Looked West
R: polka
M: 2/4
K: Gmajor
GB BA/G/|FA AB/A/|GA Bc|d2 cA|
GB BA/G/|FA A>B|cA FA|1 G2 GD:|2 G2 GB||
|:dg fe|fA A2|B/c/d ef|g2 f/g/f/e/|
dg fe|fA A>B|cA FA|1 G2 GB:|2 G2 GD||

